Resources/Public/Icons/solid/timeline.svg

<svg xmlns="http://www.w3.org/2000/svg" viewBox="0 0 640 512"><!--! Font Awesome Free 6.6.0 by @fontawesome - https://fontawesome.com License - https://fontawesome.com/license/free (Icons: CC BY 4.0, Fonts: SIL OFL 1.1, Code: MIT License) Copyright 2024 Fonticons, Inc. --><path d="M128 72a24 24 0 1 1 0 48 24 24 0 1 1 0-48zm32 97.3c28.3-12.3 48-40.5 48-73.3c0-44.2-35.8-80-80-80S48 51.8 48 96c0 32.8 19.7 61 48 73.3L96 224l-64 0c-17.7 0-32 14.3-32 32s14.3 32 32 32l256 0 0 54.7c-28.3 12.3-48 40.5-48 73.3c0 44.2 35.8 80 80 80s80-35.8 80-80c0-32.8-19.7-61-48-73.3l0-54.7 256 0c17.7 0 32-14.3 32-32s-14.3-32-32-32l-64 0 0-54.7c28.3-12.3 48-40.5 48-73.3c0-44.2-35.8-80-80-80s-80 35.8-80 80c0 32.8 19.7 61 48 73.3l0 54.7-320 0 0-54.7zM488 96a24 24 0 1 1 48 0 24 24 0 1 1 -48 0zM320 392a24 24 0 1 1 0 48 24 24 0 1 1 0-48z"/></svg>

<svg xmlns="http://www.w3.org/2000/svg" viewBox="0 0 640 512"><!--! Font Awesome Free 6.5.1 by @fontawesome - https://fontawesome.com License - https://fontawesome.com/license/free (Icons: CC BY 4.0, Fonts: SIL OFL 1.1, Code: MIT License) Copyright 2023 Fonticons, Inc. --><path d="M128 72a24 24 0 1 1 0 48 24 24 0 1 1 0-48zm32 97.3c28.3-12.3 48-40.5 48-73.3c0-44.2-35.8-80-80-80S48 51.8 48 96c0 32.8 19.7 61 48 73.3V224H32c-17.7 0-32 14.3-32 32s14.3 32 32 32H288v54.7c-28.3 12.3-48 40.5-48 73.3c0 44.2 35.8 80 80 80s80-35.8 80-80c0-32.8-19.7-61-48-73.3V288H608c17.7 0 32-14.3 32-32s-14.3-32-32-32H544V169.3c28.3-12.3 48-40.5 48-73.3c0-44.2-35.8-80-80-80s-80 35.8-80 80c0 32.8 19.7 61 48 73.3V224H160V169.3zM488 96a24 24 0 1 1 48 0 24 24 0 1 1 -48 0zM320 392a24 24 0 1 1 0 48 24 24 0 1 1 0-48z"/></svg>
